X: 11
M:2/4
L:1/16
Q:1/4=75
K:A
uE2 S| v(3AAA AA z "4"AGB | zvAdf e4 | (3vfff ff zcdf | zcdB A2 :|
uc2| z"4"uA~G>E C<A,z2 | z"4"uA~G>E C<A,z2 |  z"4"uAG>E C>DE>F |G>EF>E C<A,:|
uA,2|k(_B,4A,2) z2 | z "4"uAFD EDz A, | k(_B,4A,2) z2 |z "4"A(~G>E) CA, z uA, |
 (k_B,4A,2) z2 | z AFD EDz A, | (k_B,4A,2) z2 |z vA(~G>E) CA, z uA, |


